!!!OTL: Schoenstes Schaetzchen ich steh draussen vor dein' Fensterlein
!!!ARE: Europa, Mitteleuropa, Deutschland, Untermainfranken, Spessart
!!!SCT: D0168
!!!YEM: Copyright 1995, estate of Helmut Schaffrath.
**kern
*ICvox
*Ivox
*M4/4
*k[b-e-a-]
*E-:
=1
{4e-
4B-
4e-
4g
=2
4f
4f
4e-
4B-}
=3
{4.g
8f
4g
4b-
=4
4b-
4r}
{4a-
4f
=5
4b-
4a-
8g
8g
8cc
8b-
=6
4b-
4g
4r}
{4b-
=7
4b-
8cc
8b-
4a-
4b-
=8
2g
2r}
==
!!!AGN: Tage - Lied, Kilt - Lied
!! Inzipit = Variante zum Lied
!!!ONB: ESAC (Essen Associative Code) Database: DVA
!!!AMT: simple quadruple
!!!AIN: vox
!!!EED: Helmut Schaffrath
!!!EEV: 1.0
*-
